src/topics/icons/netflix.svg

<svg height="138" preserveAspectRatio="xMidYMid" viewBox="0 0 512 138" width="512" xmlns="http://www.w3.org/2000/svg"><path d="m340.657183 0v100.203061c12.359223.575018 24.687024 1.270137 36.979912 2.090245v21.244247c-19.432609-1.29531-38.946913-2.284082-58.542216-2.958323v-120.57923zm171.342817.01187107-28.077082 65.09422613 28.070099 72.4376128-.031422.013775c-8.176638-1.166585-16.36375-2.267848-24.575301-3.323549l-15.763246-40.6562562-15.913372 36.8821552c-7.541221-.832712-15.092916-1.62056-22.662067-2.358936l27.371838-63.4300444-25.067576-64.65898353h23.325414l14.03505 36.18389283 15.606138-36.18389283zm-266.906839 119.51438093-.000699-119.51476506h60.190112v21.43522046h-38.627807v27.7810192h29.227117v21.2442468h-29.227117v49.0493556zm-80.513005-98.077764-.000698-21.43811844h66.690924v21.43661794h-22.565007v98.6608115c-7.196978.188355-14.386275.41159-21.560909.682305v-99.341616zm-73.7119392 105.517736v-126.95225821h59.8898602v21.43522041h-38.331047v29.0357945c8.806121-.1127691 21.326991-.240551 29.116792-.2216979v21.2459925c-9.750868-.1211483-20.757558.133717-29.116792.2171592v32.1633055c12.739775-1.002004 25.517954-1.878671 38.331047-2.618828v21.246341c-20.05406 1.155169-40.018046 2.643338-59.8898602 4.448971zm-42.2971702-49.1121986-.0013964-77.8435508h21.5623047v128.9583624c-7.8823211.810891-15.7496297 1.673628-23.6033221 2.584509l-24.9677245-71.7288778v74.8012278c-7.2011675.937869-14.38767135 1.915714-21.5609083 2.936642v-137.55046693h20.4911722zm346.8542514 46.9650456v.00014-124.80720088h21.562305v126.58776688c-7.178125-.638944-14.363232-1.229882-21.562305-1.780706z" fill="#db202c"/></svg>

<?xml version="1.0" encoding="UTF-8"?>
<svg width="512px" height="138px" viewBox="0 0 512 138" version="1.1" xmlns="http://www.w3.org/2000/svg" xmlns:xlink="http://www.w3.org/1999/xlink" preserveAspectRatio="xMidYMid">
    <g>
        <path d="M340.657183,0 L340.657183,100.203061 C353.016406,100.778079 365.344207,101.473198 377.637095,102.293306 L377.637095,123.537553 C358.204486,122.242243 338.690182,121.253471 319.094879,120.57923 L319.094879,0 L340.657183,0 Z M512,0.0118710746 L483.922918,65.1060972 L511.993017,137.54371 L511.961595,137.557485 C503.784957,136.3909 495.597845,135.289637 487.386294,134.233936 L471.623048,93.5776798 L455.709676,130.459835 C448.168455,129.627123 440.61676,128.839275 433.047609,128.100899 L460.419447,64.6708546 L435.351871,0.0118710746 L458.677285,0.0118710746 L472.712335,36.1957639 L488.318473,0.0118710746 L512,0.0118710746 Z M245.093161,119.526252 L245.092462,0.0114869428 L305.282574,0.0114869428 L305.282574,21.4467074 L266.654767,21.4467074 L266.654767,49.2277266 L295.881884,49.2277266 L295.881884,70.4719734 L266.654767,70.4719734 L266.654767,119.521329 L245.093161,119.526252 Z M164.580156,21.448488 L164.579458,0.0103695593 L231.270382,0.0103695593 L231.270382,21.4469875 L208.705375,21.4469875 L208.705375,120.107799 C201.508397,120.296154 194.3191,120.519389 187.144466,120.790104 L187.144466,21.448488 L164.580156,21.448488 Z M90.8682168,126.966224 L90.8682168,0.0139657936 L150.758077,0.0139657936 L150.758077,21.4491862 L112.42703,21.4491862 L112.42703,50.4849807 C121.233151,50.3722116 133.754021,50.2444297 141.543822,50.2632828 L141.543822,71.5092753 C131.792954,71.388127 120.786264,71.6429923 112.42703,71.7264345 L112.42703,103.88974 C125.166805,102.887736 137.944984,102.011069 150.758077,101.270912 L150.758077,122.517253 C130.704017,123.672422 110.740031,125.160591 90.8682168,126.966224 Z M48.5710466,77.8540254 L48.5696502,0.0104745953 L70.1319549,0.0104745953 L70.1319549,128.968837 C62.2496338,129.779728 54.3823252,130.642465 46.5286328,131.553346 L21.5609083,59.8244682 L21.5609083,134.625696 C14.3597408,135.563565 7.17323695,136.54141 0,137.562338 L0,0.0118710746 L20.4911722,0.0118710746 L48.5710466,77.8540254 Z M395.425298,124.819071 L395.425298,124.819211 L395.425298,0.0120101224 L416.987603,0.0120101224 L416.987603,126.599777 C409.809478,125.960833 402.624371,125.369895 395.425298,124.819071 Z" fill="#DB202C" fill-rule="nonzero"></path>
    </g>
</svg>
